src/data/eyes/1f61d.svg

<svg xmlns="http://www.w3.org/2000/svg" viewBox="0 0 36 36"><path d="M15.707 15.293C12.452 12.038 7.221 12 7 12a1.001 1.001 0 0 0-.001 2c.026 0 1.558.016 3.361.536-.221.261-.36.595-.36.964 0 .123.019.241.047.356-2.716.918-4.533 2.259-4.647 2.344a1 1 0 0 0 1.2 1.6c.037-.028 3.787-2.8 8.4-2.8a1.002 1.002 0 0 0 .707-1.707zM30.6 18.2c-.114-.085-1.931-1.426-4.646-2.344.026-.115.046-.233.046-.356 0-.369-.139-.703-.359-.964A13.866 13.866 0 0 1 29.002 14 1 1 0 0 0 29 12c-.221 0-5.451.038-8.707 3.293A1 1 0 0 0 21 17c4.59 0 8.363 2.773 8.401 2.801a.999.999 0 0 0 1.4-.202A1 1 0 0 0 30.6 18.2z" style="fill:#66471b;fill-opacity:1"/></svg>

<?xml version="1.0" encoding="UTF-8" standalone="no"?>
<svg
   xmlns:dc="http://purl.org/dc/elements/1.1/"
   xmlns:cc="http://creativecommons.org/ns#"
   xmlns:rdf="http://www.w3.org/1999/02/22-rdf-syntax-ns#"
   xmlns:svg="http://www.w3.org/2000/svg"
   xmlns="http://www.w3.org/2000/svg"
   xmlns:sodipodi="http://sodipodi.sourceforge.net/DTD/sodipodi-0.dtd"
   xmlns:inkscape="http://www.inkscape.org/namespaces/inkscape"
   viewBox="0 0 36 36"
   version="1.1"
   id="svg10"
   sodipodi:docname="1f61d.svg"
   inkscape:version="1.0.1 (3bc2e813f5, 2020-09-07)">
  <metadata
     id="metadata16">
    <rdf:RDF>
      <cc:Work
         rdf:about="">
        <dc:format>image/svg+xml</dc:format>
        <dc:type
           rdf:resource="http://purl.org/dc/dcmitype/StillImage" />
        <dc:title></dc:title>
      </cc:Work>
    </rdf:RDF>
  </metadata>
  <defs
     id="defs14" />
  <sodipodi:namedview
     pagecolor="#ffffff"
     bordercolor="#666666"
     borderopacity="1"
     objecttolerance="10"
     gridtolerance="10"
     guidetolerance="10"
     inkscape:pageopacity="0"
     inkscape:pageshadow="2"
     inkscape:window-width="1366"
     inkscape:window-height="728"
     id="namedview12"
     showgrid="false"
     inkscape:zoom="11.652778"
     inkscape:cx="19.120538"
     inkscape:cy="17.455438"
     inkscape:window-x="3840"
     inkscape:window-y="312"
     inkscape:window-maximized="1"
     inkscape:current-layer="svg10" />
  <path
     d="M 15.707,15.293 C 12.452,12.038 7.221,12 7,12 6.448,12 6.001,12.447 6.001,12.998 6,13.55 6.447,13.998 6.999,14 7.025,14 8.557,14.016 10.36,14.536 10.139,14.797 10,15.131 10,15.5 c 0,0.123 0.019,0.241 0.047,0.356 C 7.331,16.774 5.514,18.115 5.4,18.2 4.958,18.531 4.869,19.158 5.2,19.6 5.396,19.862 5.697,20 6.001,20 6.209,20 6.42,19.935 6.6,19.8 6.637,19.772 10.387,17 15,17 c 0.404,0 0.769,-0.244 0.924,-0.617 0.155,-0.374 0.069,-0.804 -0.217,-1.09 z"
     id="path843"
     style="fill:#66471b;fill-opacity:1" />
  <path
     d="M 30.6,18.2 C 30.486,18.115 28.669,16.774 25.954,15.856 25.98,15.741 26,15.623 26,15.5 26,15.131 25.861,14.797 25.641,14.536 27.443,14.016 28.975,14 29.002,14 29.553,13.998 30,13.55 29.999,12.998 29.998,12.447 29.552,12 29,12 c -0.221,0 -5.451,0.038 -8.707,3.293 -0.286,0.286 -0.372,0.716 -0.217,1.09 C 20.23,16.756 20.596,17 21,17 c 4.59,0 8.363,2.773 8.401,2.801 0.18,0.134 0.39,0.199 0.598,0.199 0.305,0 0.605,-0.139 0.802,-0.401 0.33,-0.443 0.24,-1.068 -0.201,-1.399 z"
     id="path4"
     style="fill:#66471b;fill-opacity:1" />
</svg>
